X: 1
T: Willie Davy
R: reel
Z: 2006 John Chambers <jc:trillian.mit.edu>
S: handwritten MS of unknown origin
M: C|
L: 1/8
K: A
|: "A"e2ef  edcd | e2ef    efga  |1 "A"e2ef  edce | "Bm"Bcde "E7"f2e2 :|2 "A"ceef edce | "Bm"Bcde "E7"f2ef |]
|: "A"a2Aa  fedc | a2Aa "D"f2ef  |1 "A"a2Aa  fedc | "Bm"Bcde "E7"fefg :|2 "A"agag fedc | "Bm"Bcde "E7"f2e2 |]
|: "A"c2ea  c2ea | c2ea "G"=gfed |1 "A"c2ea  c2ea | "Bm"Bcde "E7"f2e2 :|2 "A"ceae ceac | "Bm"Bcde "E7"f2ef |]
|: "A"a2~A2 fedc | a2~A2 "D"f2ef |1 "A"a2~A2 fedc | "Bm"Bcde "E7"fefg :|2 "A"agag fedc | "Bm"Bcde "E7"f2e2 |]
